resources/icons/16px/layout-top-row-three-tiles.svg

<svg width="16" height="16" viewBox="0 0 16 16" fill="none" xmlns="http://www.w3.org/2000/svg">
<path d="M7 7C6.44772 7 6 6.55228 6 6L6 1C6 0.447715 6.44772 1.11564e-07 7 8.74234e-08L9 0C9.55228 -2.41411e-08 10 0.447715 10 1V6C10 6.55228 9.55228 7 9 7H7Z" fill="black"/>
<path d="M1 7C0.447716 7 2.42698e-07 6.55228 2.18557e-07 6L0 1C-2.41411e-08 0.447715 0.447715 1.11564e-07 1 8.74234e-08L3 0C3.55228 -2.41411e-08 4 0.447715 4 1V6C4 6.55228 3.55228 7 3 7H1Z" fill="black"/>
<path d="M13 7C12.4477 7 12 6.55228 12 6V1C12 0.447715 12.4477 1.11564e-07 13 8.74234e-08L15 0C15.5523 -2.41411e-08 16 0.447715 16 1V6C16 6.55228 15.5523 7 15 7H13Z" fill="black"/>
<path d="M1 16C0.447716 16 2.42698e-07 15.5523 2.18557e-07 15L0 10C-2.41411e-08 9.44772 0.447715 9 1 9L15 9C15.5523 9 16 9.44771 16 10V15C16 15.5523 15.5523 16 15 16L1 16Z" fill="black"/>
</svg>

<svg xmlns="http://www.w3.org/2000/svg" viewBox="0 0 16 16">
  <path d="M7 7a1 1 0 0 1-1-1V1a1 1 0 0 1 1-1h2a1 1 0 0 1 1 1v5a1 1 0 0 1-1 1zM1 7a1 1 0 0 1-1-1V1a1 1 0 0 1 1-1h2a1 1 0 0 1 1 1v5a1 1 0 0 1-1 1zM13 7a1 1 0 0 1-1-1V1a1 1 0 0 1 1-1h2a1 1 0 0 1 1 1v5a1 1 0 0 1-1 1zM1 16a1 1 0 0 1-1-1v-5a1 1 0 0 1 1-1h14a1 1 0 0 1 1 1v5a1 1 0 0 1-1 1z"/>
</svg>
